X:136
T:Sean Ryan's No. 1
Z: id:dc-jig-114
M:6/8
L:1/8
K:A Dorian
B|c3 B3|AGE DB,G,|A,G,A, EDB,|DEG AGE|!
c3 B3|AGE DB,G,|A,G,A, EDB,|DB,G, A,2:|!
B|cBA a3|bag edB|GBd g3|GBd cBA|!
cBc d^cd|ede gab|age dBG|EFG A2:|!

